X: 15930
T: Grandpa Tommy's Ceili Band
R: reel
M: 4/4
K: Gmajor
GB~B2 dB~B2|GABG ABGE|DEGA Bd~d2|eaaf gedB|
GB~B2 dB~B2|GABG ABGE|DEGA Bgfg|ecAF G4:|
|:~g3a gfed|Bd~d2 Bdef|g2af gfed|eaag ea~a2|
~g3a gfed|Bd~d2 gdBd|~c3B cBAG|FGAF G4:|

